icons/ins.svg

<svg width="14" height="14" viewBox="0 0 14 14" fill="none" xmlns="http://www.w3.org/2000/svg">
<path d="M6.99995 3.79548C5.22651 3.79548 3.79526 5.22673 3.79526 7.00017C3.79526 8.77361 5.22651 10.2049 6.99995 10.2049C8.77339 10.2049 10.2046 8.77361 10.2046 7.00017C10.2046 5.22673 8.77339 3.79548 6.99995 3.79548ZM6.99995 9.08298C5.85308 9.08298 4.91714 8.14705 4.91714 7.00017C4.91714 5.8533 5.85308 4.91736 6.99995 4.91736C8.14683 4.91736 9.08277 5.8533 9.08277 7.00017C9.08277 8.14705 8.14683 9.08298 6.99995 9.08298ZM10.3359 2.91736C9.92183 2.91736 9.58745 3.25173 9.58745 3.6658C9.58745 4.07986 9.92183 4.41423 10.3359 4.41423C10.75 4.41423 11.0843 4.08142 11.0843 3.6658C11.0845 3.56748 11.0652 3.4701 11.0276 3.37924C10.99 3.28838 10.9349 3.20582 10.8654 3.1363C10.7959 3.06677 10.7133 3.01165 10.6225 2.97408C10.5316 2.93651 10.4342 2.91724 10.3359 2.91736ZM13.2468 7.00017C13.2468 6.13767 13.2546 5.28298 13.2062 4.42205C13.1578 3.42205 12.9296 2.53455 12.1984 1.8033C11.4656 1.07048 10.5796 0.843922 9.57964 0.795484C8.71714 0.747047 7.86245 0.754859 7.00151 0.754859C6.13901 0.754859 5.28433 0.747047 4.42339 0.795484C3.42339 0.843922 2.53589 1.07205 1.80464 1.8033C1.07183 2.53611 0.845265 3.42205 0.796827 4.42205C0.74839 5.28455 0.756202 6.13923 0.756202 7.00017C0.756202 7.86111 0.74839 8.71736 0.796827 9.5783C0.845265 10.5783 1.07339 11.4658 1.80464 12.197C2.53745 12.9299 3.42339 13.1564 4.42339 13.2049C5.28589 13.2533 6.14058 13.2455 7.00151 13.2455C7.86401 13.2455 8.7187 13.2533 9.57964 13.2049C10.5796 13.1564 11.4671 12.9283 12.1984 12.197C12.9312 11.4642 13.1578 10.5783 13.2062 9.5783C13.2562 8.71736 13.2468 7.86267 13.2468 7.00017ZM11.8718 10.6845C11.7578 10.9689 11.6203 11.1814 11.4 11.4002C11.1796 11.6205 10.9687 11.758 10.6843 11.872C9.86245 12.1986 7.91089 12.1252 6.99995 12.1252C6.08902 12.1252 4.13589 12.1986 3.31401 11.8736C3.02964 11.7595 2.81714 11.622 2.59839 11.4017C2.37808 11.1814 2.24058 10.9705 2.12651 10.6861C1.80151 9.86267 1.87495 7.91111 1.87495 7.00017C1.87495 6.08923 1.80151 4.13611 2.12651 3.31423C2.24058 3.02986 2.37808 2.81736 2.59839 2.59861C2.8187 2.37986 3.02964 2.2408 3.31401 2.12673C4.13589 1.80173 6.08902 1.87517 6.99995 1.87517C7.91089 1.87517 9.86402 1.80173 10.6859 2.12673C10.9703 2.2408 11.1828 2.3783 11.4015 2.59861C11.6218 2.81892 11.7593 3.02986 11.8734 3.31423C12.1984 4.13611 12.125 6.08923 12.125 7.00017C12.125 7.91111 12.1984 9.86267 11.8718 10.6845Z" fill="black"/>
</svg>

<svg width="14" height="14" fill="none" xmlns="http://www.w3.org/2000/svg"><path d="M7 3.795A3.2 3.2 0 003.795 7 3.2 3.2 0 007 10.205 3.2 3.2 0 0010.205 7 3.2 3.2 0 007 3.795zm0 5.288A2.087 2.087 0 014.917 7c0-1.147.936-2.083 2.083-2.083 1.147 0 2.083.936 2.083 2.083A2.087 2.087 0 017 9.083zm3.336-6.166a.748.748 0 100 1.497.746.746 0 00.53-1.278.748.748 0 00-.53-.219zM13.246 7c0-.862.009-1.717-.04-2.578-.048-1-.276-1.887-1.008-2.619C11.466 1.07 10.58.843 9.58.795 8.717.747 7.862.755 7.002.755c-.863 0-1.718-.008-2.579.04-1 .049-1.887.277-2.618 1.008-.733.733-.96 1.619-1.008 2.619C.748 5.285.757 6.139.757 7c0 .861-.009 1.717.04 2.578.048 1 .276 1.888 1.008 2.619.732.733 1.618.96 2.618 1.008.863.048 1.718.04 2.579.04.862 0 1.717.008 2.578-.04 1-.049 1.887-.277 2.618-1.008.733-.733.96-1.619 1.008-2.619.05-.86.04-1.715.04-2.578zm-1.374 3.684a1.985 1.985 0 01-.472.716c-.22.22-.431.358-.716.472-.822.327-2.773.253-3.684.253s-2.864.074-3.686-.251a1.986 1.986 0 01-.716-.472 1.999 1.999 0 01-.471-.716C1.802 9.863 1.875 7.911 1.875 7c0-.91-.073-2.864.252-3.686a1.98 1.98 0 01.471-.715 2.02 2.02 0 01.716-.472c.822-.325 2.775-.252 3.686-.252.91 0 2.864-.073 3.686.252.284.114.497.251.716.472a2 2 0 01.471.715c.325.822.252 2.775.252 3.686s.073 2.863-.253 3.684z" fill="#000"/></svg>
